X: 34932
T: Rocking The Boat
R: jig
M: 6/8
K: Cdorian
|:BB,B, Bcd|BFF Bcd|BGG e2 c|dcB cBG|
BB,B, Bcd|BFF Bcd|f2 d f2 d|cBG GFG:|
|:dfb B3|fdB GFG|dfb B3|fdB dcc|
dfb B3|fdB GFG|f2 d f2 d|cBG GFG:|

